src/images/icon-thumbs-up.svg

<svg class="bi bi-hand-thumbs-up" width="1em" height="1em" viewBox="0 0 16 16" fill="currentColor" xmlns="http://www.w3.org/2000/svg">
  <path fill-rule="evenodd" d="M6.956 1.745C7.021.81 7.908.087 8.864.325l.261.066c.463.116.874.456 1.012.965.22.816.533 2.511.062 4.51a9.84 9.84 0 0 1 .443-.051c.713-.065 1.669-.072 2.516.21.518.173.994.681 1.2 1.273.184.532.16 1.162-.234 1.733.058.119.103.242.138.363.077.27.113.567.113.856 0 .289-.036.586-.113.856-.039.135-.09.273-.16.404.169.387.107.819-.003 1.148a3.163 3.163 0 0 1-.488.901c.054.152.076.312.076.465 0 .305-.089.625-.253.912C13.1 15.522 12.437 16 11.5 16v-1c.563 0 .901-.272 1.066-.56a.865.865 0 0 0 .121-.416c0-.12-.035-.165-.04-.17l-.354-.354.353-.354c.202-.201.407-.511.505-.804.104-.312.043-.441-.005-.488l-.353-.354.353-.354c.043-.042.105-.14.154-.315.048-.167.075-.37.075-.581 0-.211-.027-.414-.075-.581-.05-.174-.111-.273-.154-.315L12.793 9l.353-.354c.353-.352.373-.713.267-1.02-.122-.35-.396-.593-.571-.652-.653-.217-1.447-.224-2.11-.164a8.907 8.907 0 0 0-1.094.171l-.014.003-.003.001a.5.5 0 0 1-.595-.643 8.34 8.34 0 0 0 .145-4.726c-.03-.111-.128-.215-.288-.255l-.262-.065c-.306-.077-.642.156-.667.518-.075 1.082-.239 2.15-.482 2.85-.174.502-.603 1.268-1.238 1.977-.637.712-1.519 1.41-2.614 1.708-.394.108-.62.396-.62.65v4.002c0 .26.22.515.553.55 1.293.137 1.936.53 2.491.868l.04.025c.27.164.495.296.776.393.277.095.63.163 1.14.163h3.5v1H8c-.605 0-1.07-.081-1.466-.218a4.82 4.82 0 0 1-.97-.484l-.048-.03c-.504-.307-.999-.609-2.068-.722C2.682 14.464 2 13.846 2 13V9c0-.85.685-1.432 1.357-1.615.849-.232 1.574-.787 2.132-1.41.56-.627.914-1.28 1.039-1.639.199-.575.356-1.539.428-2.59z"/>
</svg>

<svg
   xmlns="http://www.w3.org/2000/svg"
   fill="currentColor"
   viewBox="0 0 16 16"
   height="1em"
   width="1em"
   class="bi bi-hand-thumbs-up">
  <path d="M 6.956,1.745 C 7.021,0.81 7.908,0.087 8.864,0.325 l 0.261,0.066 c 0.463,0.116 0.874,0.456 1.012,0.965 0.22,0.816 0.533,2.511 0.062,4.51 0.147262,-0.020344 0.294967,-0.037349 0.443,-0.051 0.713,-0.065 1.669,-0.072 2.516,0.21 0.518,0.173 0.994,0.681 1.2,1.273 0.184,0.532 0.16,1.162 -0.234,1.733 0.058,0.119 0.103,0.242 0.138,0.363 0.077,0.27 0.113,0.567 0.113,0.856 0,0.289 -0.036,0.586 -0.113,0.856 -0.039,0.135 -0.09,0.273 -0.16,0.404 0.169,0.387 0.107,0.819 -0.003,1.148 -0.112615,0.324861 -0.277444,0.629186 -0.488,0.901 0.054,0.152 0.076,0.312 0.076,0.465 0,0.305 -0.089,0.625 -0.253,0.912 C 13.1,15.522 12.437,16 11.5,16 9.9805186,16.006827 11.166637,16 8,16 7.395,16 6.93,15.919 6.534,15.782 6.1934952,15.657655 5.8681045,15.495295 5.564,15.298 L 5.516,15.268 C 5.012,14.961 4.517,14.659 3.448,14.546 2.682,14.464 2,13.846 2,13 V 9 C 2,8.15 2.685,7.568 3.357,7.385 4.206,7.153 4.931,6.598 5.489,5.975 6.049,5.348 6.403,4.695 6.528,4.336 6.727,3.761 6.884,2.797 6.956,1.746 Z"
     fill-rule="evenodd" />
</svg>
